dist/svgs/unicons/line/download-alt.svg

<svg xmlns="http://www.w3.org/2000/svg" viewBox="0 0 24 24"><path d="M8.29 13.29a1 1 0 000 1.42l3 3a1 1 0 001.42 0l3-3a1 1 0 00-1.42-1.42L13 14.59V3a1 1 0 00-2 0v11.59l-1.29-1.3a1 1 0 00-1.42 0zM18 9h-2a1 1 0 000 2h2a1 1 0 011 1v7a1 1 0 01-1 1H6a1 1 0 01-1-1v-7a1 1 0 011-1h2a1 1 0 000-2H6a3 3 0 00-3 3v7a3 3 0 003 3h12a3 3 0 003-3v-7a3 3 0 00-3-3z"/></svg>

<svg xmlns="http://www.w3.org/2000/svg" viewBox="0 0 24 24"><path d="M8.29,13.29a1,1,0,0,0,0,1.42l3,3a1,1,0,0,0,1.42,0l3-3a1,1,0,0,0-1.42-1.42L13,14.59V3a1,1,0,0,0-2,0V14.59l-1.29-1.3A1,1,0,0,0,8.29,13.29ZM18,9H16a1,1,0,0,0,0,2h2a1,1,0,0,1,1,1v7a1,1,0,0,1-1,1H6a1,1,0,0,1-1-1V12a1,1,0,0,1,1-1H8A1,1,0,0,0,8,9H6a3,3,0,0,0-3,3v7a3,3,0,0,0,3,3H18a3,3,0,0,0,3-3V12A3,3,0,0,0,18,9Z"/></svg>
